X:3 
T:Variation no. 3 
C:J.S.Bach 
M:12/8 
L:1/16 
Q:400 
V:3 bass 
K:G 
[V:1] B6-Bcdcde A6-ABcBcd |G6g6- g2agfg a2 z4 | 
[V:2] z12 z12 |B6- Bcdcde A6- ABcBcd| 
[V:3] G,,2B,,2D,2 G,2B,2E,2 F,,2A,,2D,2 F,2A,2D,2 |E,,2G,,2B,,2 E,2B,,2^C,2 D,,2F,,2A,,2 D,2F,2A,2| 
% 
[V:1] z2dcBA B2cBAB G2e2d2 c2f2a2 |B4g2g4f2z4b2a4d2 | 
[V:2] G6 g6-g2agfg a2z4 |z2dcBA B2cBAB G2e2d2 c2f2a2 | 
[V:3] B,,A,,B,,=C,D,2- D,G,,A,,B,,C,D, E,D,C,B,,C,E, F,,A,,G,,F,,E,,D,, |G,,F,,G,,A,,B,,C, D,E,A,,B,,C,A,, B,,A,,G,,F,,G,,2- G,,F,,E,,D,,E,,F,,| 
% 
[V:1] dedcB2 e2B2d2 ^c2d2e2- e2c2A2 |z4d2 G6- G2F2G2 E2AGFE | 
[V:2] B4g2 g4f2 z4b2a4d2- |ded=cB2 e2B2d2 ^c2d2e2- e2c2A2 | 
[V:3] G,,F,,G,,A,,G,,F,, E,,F,,G,,E,,F,,G,, A,,G,,A,,B,,A,,G,, F,,F,G,F,E,F, |B,,A,,B,,=C,D,B,, ^C,D,E,D,C,B,, A,,E,D,C,D,B,, C,A,,B,,C,D,E,| 
% 
[V:1] D2EFGA B2d2^c2 d6- d2c2z2 |d6- dAGFGE F12 :| 
[V:2] z4d2 G6- G2F2G2 E2AGFE |D2EFGA B2d2^c2 d12 :| 
[V:3] F,B,,^C,D,E,F, G,F,E,D,E,^A,, B,,C,D,C,B,,=A,, G,,F,,G,,B,,A,,G,, |F,,A,,G,,F,,E,,D,, G,,2E,,2A,,2 D,,F,,A,,D,A,,F,, D,,6 :| 
% 
[V:1] z4z2 a6- abc'abc' bagfe^d |e2f2g2- g2f2e2 ^d6- d4z2 | 
[V:2] z12 z12 |z4z2 a6- abc'abc' bagfe^d| 
[V:3] D,2F,2A,2 D2=CB,A,G, F,2A,2D,2 G,2A,2B,2 |C=DCB,A,G, F,E,F,G,A,F, B,2F,2G,2 A,CB,A,G,F, | 
% 
[V:1] z4z2 A6- A2BAGF GABGAB |E2FGAB c2E2^D2 E6 z4z2 | 
[V:2] e2f2g2- g2f2e2 ^d6- d4z2 |z4z2 A6- A2BAGF GABGAB | 
[V:3] G,A,G,F,E,=D, C,B,,A,,B,,C,A,, B,,2F,2B,2- B,2G,2E,2 |CDCB,A,G, F,E,F,B,A,B, E,2G,2B,2 E2E,2=D,2| 
% 
[V:1] e6-efgefg cdecde ABcABc |BcdBcd e^fgefg cdecde ABcABc | 
[V:2] E2FGAB c2E2^D2 E6 z4z2 |e6 G6- G2g4- g2f2a2| 
[V:3] C,2C2B,2 A,6- A,2C2A,2 F,2D,2D2 |G,A,G,=F,E,D, C,2E,2C,2 A,,B,,C,A,,B,,C, D,2D,,2^F,2 | 
% 
[V:1] a2g2=f2 edcedc B4b2 a4c'2 |b4d'2 g2a2^f2 g12 :| 
[V:2] BcdBcd G6- G2g4- g2^f2a2- |a2g2=f2 edcedc B12 :| 
[V:3] G,A,B,G,A,B, C2E2A,2 DCB,DCB, CB,A,G,F,A, |G,F,E,D,C,B,, C,2A,,2D,2 G,,B,,D,G,D,B,, G,,6 :|
